bernoullicharts/1_5_x__mean.svg

<?xml version="1.0" encoding="utf-8" standalone="no"?>
<!DOCTYPE svg PUBLIC "-//W3C//DTD SVG 1.1//EN"
  "http://www.w3.org/Graphics/SVG/1.1/DTD/svg11.dtd">
<!-- Created with matplotlib (https://matplotlib.org/) -->
<svg height="345.6pt" version="1.1" viewBox="0 0 460.8 345.6" width="460.8pt" xmlns="http://www.w3.org/2000/svg" xmlns:xlink="http://www.w3.org/1999/xlink">
 <defs>
  <style type="text/css">
*{stroke-linecap:butt;stroke-linejoin:round;}
  </style>
 </defs>
 <g id="figure_1">
  <g id="patch_1">
   <path d="M 0 345.6 
L 460.8 345.6 
L 460.8 0 
L 0 0 
z
" style="fill:#ffffff;"/>
  </g>
  <g id="axes_1">
   <g id="patch_2">
    <path d="M 57.6 307.584 
L 414.72 307.584 
L 414.72 41.472 
L 57.6 41.472 
z
" style="fill:#ffffff;"/>
   </g>
   <g id="matplotlib.axis_1">
    <g id="xtick_1">
     <g id="line2d_1">
      <defs>
       <path d="M 0 0 
L 0 3.5 
" id="m934015f105" style="stroke:#000000;stroke-width:0.8;"/>
      </defs>
      <g>
       <use style="stroke:#000000;stroke-width:0.8;" x="73.800255" xlink:href="#m934015f105" y="307.584"/>
      </g>
     </g>
     <g id="text_1">
      <text style="font-family:DejaVu Sans;font-size:10px;font-style:normal;font-weight:normal;text-anchor:middle;" transform="rotate(-0, 73.800255, 322.182437)" x="73.800255" y="322.182437">0.0</text>
     </g>
    </g>
    <g id="xtick_2">
     <g id="line2d_2">
      <g>
       <use style="stroke:#000000;stroke-width:0.8;" x="138.744153" xlink:href="#m934015f105" y="307.584"/>
      </g>
     </g>
     <g id="text_2">
      <text style="font-family:DejaVu Sans;font-size:10px;font-style:normal;font-weight:normal;text-anchor:middle;" transform="rotate(-0, 138.744153, 322.182437)" x="138.744153" y="322.182437">0.2</text>
     </g>
    </g>
    <g id="xtick_3">
     <g id="line2d_3">
      <g>
       <use style="stroke:#000000;stroke-width:0.8;" x="203.688051" xlink:href="#m934015f105" y="307.584"/>
      </g>
     </g>
     <g id="text_3">
      <text style="font-family:DejaVu Sans;font-size:10px;font-style:normal;font-weight:normal;text-anchor:middle;" transform="rotate(-0, 203.688051, 322.182437)" x="203.688051" y="322.182437">0.4</text>
     </g>
    </g>
    <g id="xtick_4">
     <g id="line2d_4">
      <g>
       <use style="stroke:#000000;stroke-width:0.8;" x="268.631949" xlink:href="#m934015f105" y="307.584"/>
      </g>
     </g>
     <g id="text_4">
      <text style="font-family:DejaVu Sans;font-size:10px;font-style:normal;font-weight:normal;text-anchor:middle;" transform="rotate(-0, 268.631949, 322.182437)" x="268.631949" y="322.182437">0.6</text>
     </g>
    </g>
    <g id="xtick_5">
     <g id="line2d_5">
      <g>
       <use style="stroke:#000000;stroke-width:0.8;" x="333.575847" xlink:href="#m934015f105" y="307.584"/>
      </g>
     </g>
     <g id="text_5">
      <text style="font-family:DejaVu Sans;font-size:10px;font-style:normal;font-weight:normal;text-anchor:middle;" transform="rotate(-0, 333.575847, 322.182437)" x="333.575847" y="322.182437">0.8</text>
     </g>
    </g>
    <g id="xtick_6">
     <g id="line2d_6">
      <g>
       <use style="stroke:#000000;stroke-width:0.8;" x="398.519745" xlink:href="#m934015f105" y="307.584"/>
      </g>
     </g>
     <g id="text_6">
      <text style="font-family:DejaVu Sans;font-size:10px;font-style:normal;font-weight:normal;text-anchor:middle;" transform="rotate(-0, 398.519745, 322.182437)" x="398.519745" y="322.182437">1.0</text>
     </g>
    </g>
    <g id="text_7">
     <text style="font-family:DejaVu Sans;font-size:10px;font-style:normal;font-weight:normal;text-anchor:middle;" transform="rotate(-0, 236.16, 335.860562)" x="236.16" y="335.860562">Input Coin's Heads Probability (λ)</text>
    </g>
   </g>
   <g id="matplotlib.axis_2">
    <g id="ytick_1">
     <g id="line2d_7">
      <defs>
       <path d="M 0 0 
L -3.5 0 
" id="mebaddb2880" style="stroke:#000000;stroke-width:0.8;"/>
      </defs>
      <g>
       <use style="stroke:#000000;stroke-width:0.8;" x="57.6" xlink:href="#mebaddb2880" y="304.448"/>
      </g>
     </g>
     <g id="text_8">
      <text style="font-family:DejaVu Sans;font-size:10px;font-style:normal;font-weight:normal;text-anchor:end;" transform="rotate(-0, 50.6, 308.247219)" x="50.6" y="308.247219">0.12</text>
     </g>
    </g>
    <g id="ytick_2">
     <g id="line2d_8">
      <g>
       <use style="stroke:#000000;stroke-width:0.8;" x="57.6" xlink:href="#mebaddb2880" y="259.648"/>
      </g>
     </g>
     <g id="text_9">
      <text style="font-family:DejaVu Sans;font-size:10px;font-style:normal;font-weight:normal;text-anchor:end;" transform="rotate(-0, 50.6, 263.447219)" x="50.6" y="263.447219">0.14</text>
     </g>
    </g>
    <g id="ytick_3">
     <g id="line2d_9">
      <g>
       <use style="stroke:#000000;stroke-width:0.8;" x="57.6" xlink:href="#mebaddb2880" y="214.848"/>
      </g>
     </g>
     <g id="text_10">
      <text style="font-family:DejaVu Sans;font-size:10px;font-style:normal;font-weight:normal;text-anchor:end;" transform="rotate(-0, 50.6, 218.647219)" x="50.6" y="218.647219">0.16</text>
     </g>
    </g>
    <g id="ytick_4">
     <g id="line2d_10">
      <g>
       <use style="stroke:#000000;stroke-width:0.8;" x="57.6" xlink:href="#mebaddb2880" y="170.048"/>
      </g>
     </g>
     <g id="text_11">
      <text style="font-family:DejaVu Sans;font-size:10px;font-style:normal;font-weight:normal;text-anchor:end;" transform="rotate(-0, 50.6, 173.847219)" x="50.6" y="173.847219">0.18</text>
     </g>
    </g>
    <g id="ytick_5">
     <g id="line2d_11">
      <g>
       <use style="stroke:#000000;stroke-width:0.8;" x="57.6" xlink:href="#mebaddb2880" y="125.248"/>
      </g>
     </g>
     <g id="text_12">
      <text style="font-family:DejaVu Sans;font-size:10px;font-style:normal;font-weight:normal;text-anchor:end;" transform="rotate(-0, 50.6, 129.047219)" x="50.6" y="129.047219">0.20</text>
     </g>
    </g>
    <g id="ytick_6">
     <g id="line2d_12">
      <g>
       <use style="stroke:#000000;stroke-width:0.8;" x="57.6" xlink:href="#mebaddb2880" y="80.448"/>
      </g>
     </g>
     <g id="text_13">
      <text style="font-family:DejaVu Sans;font-size:10px;font-style:normal;font-weight:normal;text-anchor:end;" transform="rotate(-0, 50.6, 84.247219)" x="50.6" y="84.247219">0.22</text>
     </g>
    </g>
    <g id="text_14">
     <text style="font-family:DejaVu Sans;font-size:10px;font-style:normal;font-weight:normal;text-anchor:middle;" transform="rotate(-90, 22.254687, 174.528)" x="22.254687" y="174.528">Simulated Mean / Function Value</text>
    </g>
   </g>
   <g id="line2d_13">
    <path clip-path="url(#p01404f66d2)" d="M 73.832727 125.25696 
L 77.112066 126.159969 
L 80.391405 127.059346 
L 83.670744 127.955111 
L 86.950083 128.847287 
L 90.229421 129.735895 
L 93.50876 130.620956 
L 96.788099 131.502492 
L 100.067438 132.380523 
L 103.346777 133.255071 
L 106.626116 134.126157 
L 109.905455 134.9938 
L 113.184793 135.858021 
L 116.464132 136.71884 
L 119.743471 137.576278 
L 123.02281 138.430353 
L 126.302149 139.281087 
L 129.581488 140.128499 
L 132.860826 140.972607 
L 136.140165 141.813431 
L 139.419504 142.650991 
L 142.698843 143.485306 
L 145.978182 144.316393 
L 149.257521 145.144272 
L 152.53686 145.968962 
L 155.816198 146.79048 
L 159.095537 147.608845 
L 162.374876 148.424076 
L 165.654215 149.23619 
L 168.933554 150.045204 
L 172.212893 150.851138 
L 175.492231 151.654007 
L 178.77157 152.453831 
L 182.050909 153.250625 
L 185.330248 154.044407 
L 188.609587 154.835195 
L 191.888926 155.623005 
L 195.168264 156.407854 
L 198.447603 157.189758 
L 201.726942 157.968734 
L 205.006281 158.744799 
L 208.28562 159.517969 
L 211.564959 160.28826 
L 214.844298 161.055687 
L 218.123636 161.820268 
L 221.402975 162.582018 
L 224.682314 163.340952 
L 227.961653 164.097086 
L 231.240992 164.850436 
L 234.520331 165.601016 
L 237.799669 166.348843 
L 241.079008 167.093931 
L 244.358347 167.836295 
L 247.637686 168.57595 
L 250.917025 169.312912 
L 254.196364 170.047194 
L 257.475702 170.778811 
L 260.755041 171.507778 
L 264.03438 172.234109 
L 267.313719 172.957818 
L 270.593058 173.678921 
L 273.872397 174.397429 
L 277.151736 175.113358 
L 280.431074 175.826722 
L 283.710413 176.537534 
L 286.989752 177.245808 
L 290.269091 177.951557 
L 293.54843 178.654795 
L 296.827769 179.355536 
L 300.107107 180.053792 
L 303.386446 180.749577 
L 306.665785 181.442903 
L 309.945124 182.133785 
L 313.224463 182.822234 
L 316.503802 183.508264 
L 319.78314 184.191887 
L 323.062479 184.873117 
L 326.341818 185.551964 
L 329.621157 186.228443 
L 332.900496 186.902565 
L 336.179835 187.574343 
L 339.459174 188.243789 
L 342.738512 188.910915 
L 346.017851 189.575733 
L 349.29719 190.238254 
L 352.576529 190.898492 
L 355.855868 191.556457 
L 359.135207 192.212162 
L 362.414545 192.865618 
L 365.693884 193.516836 
L 368.973223 194.165828 
L 372.252562 194.812606 
L 375.531901 195.45718 
L 378.81124 196.099563 
L 382.090579 196.739764 
L 385.369917 197.377796 
L 388.649256 198.013669 
L 391.928595 198.647394 
L 395.207934 199.278982 
L 398.487273 199.908444 
" style="fill:none;stroke:#1f77b4;stroke-linecap:square;stroke-width:1.5;"/>
   </g>
   <g id="line2d_14">
    <path clip-path="url(#p01404f66d2)" d="M 73.832727 125.248 
L 77.112066 84.928 
L 80.391405 143.168 
L 83.670744 102.848 
L 86.950083 53.568 
L 90.229421 107.328 
L 93.50876 98.368 
L 96.788099 138.688 
L 100.067438 138.688 
L 103.346777 152.128 
L 106.626116 138.688 
L 109.905455 147.648 
L 113.184793 138.688 
L 116.464132 156.608 
L 119.743471 107.328 
L 123.02281 174.528 
L 126.302149 143.168 
L 129.581488 147.648 
L 132.860826 205.888 
L 136.140165 116.288 
L 139.419504 152.128 
L 142.698843 138.688 
L 145.978182 98.368 
L 149.257521 134.208 
L 152.53686 201.408 
L 155.816198 170.048 
L 159.095537 102.848 
L 162.374876 156.608 
L 165.654215 138.688 
L 168.933554 223.808 
L 172.212893 116.288 
L 175.492231 125.248 
L 178.77157 89.408 
L 182.050909 143.168 
L 185.330248 143.168 
L 188.609587 219.328 
L 191.888926 161.088 
L 195.168264 147.648 
L 198.447603 120.768 
L 201.726942 196.928 
L 205.006281 147.648 
L 208.28562 107.328 
L 211.564959 93.888 
L 214.844298 187.968 
L 218.123636 183.488 
L 221.402975 196.928 
L 224.682314 125.248 
L 227.961653 170.048 
L 231.240992 179.008 
L 234.520331 116.288 
L 237.799669 120.768 
L 241.079008 156.608 
L 244.358347 134.208 
L 247.637686 237.248 
L 250.917025 201.408 
L 254.196364 156.608 
L 257.475702 223.808 
L 260.755041 223.808 
L 264.03438 228.288 
L 267.313719 111.808 
L 270.593058 192.448 
L 273.872397 147.648 
L 277.151736 179.008 
L 280.431074 165.568 
L 283.710413 179.008 
L 286.989752 156.608 
L 290.269091 143.168 
L 293.54843 125.248 
L 296.827769 147.648 
L 300.107107 205.888 
L 303.386446 147.648 
L 306.665785 116.288 
L 309.945124 165.568 
L 313.224463 187.968 
L 316.503802 170.048 
L 319.78314 223.808 
L 323.062479 183.488 
L 326.341818 264.128 
L 329.621157 214.848 
L 332.900496 196.928 
L 336.179835 219.328 
L 339.459174 241.728 
L 342.738512 223.808 
L 346.017851 205.888 
L 349.29719 214.848 
L 352.576529 192.448 
L 355.855868 205.888 
L 359.135207 228.288 
L 362.414545 205.888 
L 365.693884 259.648 
L 368.973223 264.128 
L 372.252562 201.408 
L 375.531901 170.048 
L 378.81124 237.248 
L 382.090579 196.928 
L 385.369917 192.448 
L 388.649256 295.488 
L 391.928595 161.088 
L 395.207934 219.328 
L 398.487273 214.848 
" style="fill:none;stroke:#ff7f0e;stroke-linecap:square;stroke-width:1.5;"/>
   </g>
   <g id="patch_3">
    <path d="M 57.6 307.584 
L 57.6 41.472 
" style="fill:none;stroke:#000000;stroke-linecap:square;stroke-linejoin:miter;stroke-width:0.8;"/>
   </g>
   <g id="patch_4">
    <path d="M 414.72 307.584 
L 414.72 41.472 
" style="fill:none;stroke:#000000;stroke-linecap:square;stroke-linejoin:miter;stroke-width:0.8;"/>
   </g>
   <g id="patch_5">
    <path d="M 57.6 307.584 
L 414.72 307.584 
" style="fill:none;stroke:#000000;stroke-linecap:square;stroke-linejoin:miter;stroke-width:0.8;"/>
   </g>
   <g id="patch_6">
    <path d="M 57.6 41.472 
L 414.72 41.472 
" style="fill:none;stroke:#000000;stroke-linecap:square;stroke-linejoin:miter;stroke-width:0.8;"/>
   </g>
   <g id="text_15">
    <text style="font-family:DejaVu Sans;font-size:12px;font-style:normal;font-weight:normal;text-anchor:middle;" transform="rotate(-0, 236.16, 35.472)" x="236.16" y="35.472">Expected Value in 1/(5+x) Algorithm</text>
   </g>
   <g id="legend_1">
    <g id="patch_7">
     <path d="M 240.571562 78.82825 
L 407.72 78.82825 
Q 409.72 78.82825 409.72 76.82825 
L 409.72 48.472 
Q 409.72 46.472 407.72 46.472 
L 240.571562 46.472 
Q 238.571562 46.472 238.571562 48.472 
L 238.571562 76.82825 
Q 238.571562 78.82825 240.571562 78.82825 
z
" style="fill:#ffffff;opacity:0.8;stroke:#cccccc;stroke-linejoin:miter;"/>
    </g>
    <g id="line2d_15">
     <path d="M 242.571562 54.570437 
L 262.571563 54.570437 
" style="fill:none;stroke:#1f77b4;stroke-linecap:square;stroke-width:1.5;"/>
    </g>
    <g id="line2d_16"/>
    <g id="text_16">
     <text style="font-family:DejaVu Sans;font-size:10px;font-style:normal;font-weight:normal;text-anchor:start;" transform="rotate(-0, 270.571563, 58.070437)" x="270.571563" y="58.070437">1/(5+x)</text>
    </g>
    <g id="line2d_17">
     <path d="M 242.571562 69.248562 
L 262.571563 69.248562 
" style="fill:none;stroke:#ff7f0e;stroke-linecap:square;stroke-width:1.5;"/>
    </g>
    <g id="line2d_18"/>
    <g id="text_17">
     <text style="font-family:DejaVu Sans;font-size:10px;font-style:normal;font-weight:normal;text-anchor:start;" transform="rotate(-0, 270.571563, 72.748562)" x="270.571563" y="72.748562">Simulated Mean of 1/(5+x)</text>
    </g>
   </g>
  </g>
 </g>
 <defs>
  <clipPath id="p01404f66d2">
   <rect height="266.112" width="357.12" x="57.6" y="41.472"/>
  </clipPath>
 </defs>
</svg>

<svg height="460.8" viewBox="0 0 460.8 345.6" width="614.4" xmlns="http://www.w3.org/2000/svg" xmlns:xlink="http://www.w3.org/1999/xlink"><defs><style>*{stroke-linecap:butt;stroke-linejoin:round}</style></defs><g id="figure_1"><path d="M0 345.6h460.8V0H0z" fill="#fff" id="patch_1"/><g id="axes_1"><path d="M57.6 307.584h357.12V41.472H57.6z" fill="#fff" id="patch_2"/><g id="matplotlib.axis_1"><g id="xtick_1"><g id="line2d_1"><defs><path d="M0 0v3.5" id="m934015f105" stroke="#000" stroke-width=".8"/></defs><use x="73.8" xlink:href="#m934015f105" y="307.584" stroke="#000" stroke-width=".8"/></g><text x="73.8" y="322.182" font-family="DejaVu Sans" font-size="10" font-weight="400" text-anchor="middle" id="text_1">0.0</text></g><g id="xtick_2"><use x="138.744" xlink:href="#m934015f105" y="307.584" stroke="#000" stroke-width=".8" id="line2d_2"/><text x="138.744" y="322.182" font-family="DejaVu Sans" font-size="10" font-weight="400" text-anchor="middle" id="text_2">0.2</text></g><g id="xtick_3"><use x="203.688" xlink:href="#m934015f105" y="307.584" stroke="#000" stroke-width=".8" id="line2d_3"/><text x="203.688" y="322.182" font-family="DejaVu Sans" font-size="10" font-weight="400" text-anchor="middle" id="text_3">0.4</text></g><g id="xtick_4"><use x="268.632" xlink:href="#m934015f105" y="307.584" stroke="#000" stroke-width=".8" id="line2d_4"/><text x="268.632" y="322.182" font-family="DejaVu Sans" font-size="10" font-weight="400" text-anchor="middle" id="text_4">0.6</text></g><g id="xtick_5"><use x="333.576" xlink:href="#m934015f105" y="307.584" stroke="#000" stroke-width=".8" id="line2d_5"/><text x="333.576" y="322.182" font-family="DejaVu Sans" font-size="10" font-weight="400" text-anchor="middle" id="text_5">0.8</text></g><g id="xtick_6"><use x="398.52" xlink:href="#m934015f105" y="307.584" stroke="#000" stroke-width=".8" id="line2d_6"/><text x="398.52" y="322.182" font-family="DejaVu Sans" font-size="10" font-weight="400" text-anchor="middle" id="text_6">1.0</text></g><text x="236.16" y="335.861" font-family="DejaVu Sans" font-size="10" font-weight="400" text-anchor="middle" id="text_7">Input Coin&apos;s Heads Probability (λ)</text></g><g id="matplotlib.axis_2"><g id="ytick_1"><g id="line2d_7"><defs><path d="M0 0h-3.5" id="mebaddb2880" stroke="#000" stroke-width=".8"/></defs><use x="57.6" xlink:href="#mebaddb2880" y="304.448" stroke="#000" stroke-width=".8"/></g><text x="50.6" y="308.247" font-family="DejaVu Sans" font-size="10" font-weight="400" text-anchor="end" id="text_8">0.12</text></g><g id="ytick_2"><use x="57.6" xlink:href="#mebaddb2880" y="259.648" stroke="#000" stroke-width=".8" id="line2d_8"/><text x="50.6" y="263.447" font-family="DejaVu Sans" font-size="10" font-weight="400" text-anchor="end" id="text_9">0.14</text></g><g id="ytick_3"><use x="57.6" xlink:href="#mebaddb2880" y="214.848" stroke="#000" stroke-width=".8" id="line2d_9"/><text x="50.6" y="218.647" font-family="DejaVu Sans" font-size="10" font-weight="400" text-anchor="end" id="text_10">0.16</text></g><g id="ytick_4"><use x="57.6" xlink:href="#mebaddb2880" y="170.048" stroke="#000" stroke-width=".8" id="line2d_10"/><text x="50.6" y="173.847" font-family="DejaVu Sans" font-size="10" font-weight="400" text-anchor="end" id="text_11">0.18</text></g><g id="ytick_5"><use x="57.6" xlink:href="#mebaddb2880" y="125.248" stroke="#000" stroke-width=".8" id="line2d_11"/><text x="50.6" y="129.047" font-family="DejaVu Sans" font-size="10" font-weight="400" text-anchor="end" id="text_12">0.20</text></g><g id="ytick_6"><use x="57.6" xlink:href="#mebaddb2880" y="80.448" stroke="#000" stroke-width=".8" id="line2d_12"/><text x="50.6" y="84.247" font-family="DejaVu Sans" font-size="10" font-weight="400" text-anchor="end" id="text_13">0.22</text></g><text transform="rotate(-90 22.255 174.528)" x="22.255" y="174.528" font-family="DejaVu Sans" font-size="10" font-weight="400" text-anchor="middle" id="text_14">Simulated Mean / Function Value</text></g><path clip-path="url(#p01404f66d2)" d="M73.833 125.257l3.28.903 3.278.9 3.28.895 3.28.892 3.278.889 3.28.885 3.28.881 3.278.879 3.28.874 3.28.871 3.278.868 3.28.864 3.28.86 3.278.858 3.28.854 3.28.851 3.278.847 3.28.845 3.28.84 3.279.838 3.279.834 3.28.831 3.279.828 3.279.825 3.28.821 3.279.819 3.279.815 3.28.812 3.279.81 3.279.805 3.28.803 3.279.8 3.279.797 3.28.793 3.279.791 3.279.788 3.28.785 3.279.782 3.279.779 3.28.776 3.279.773 3.279.77 3.28.768 3.279.764 3.279.762 3.28.759 3.279.756 3.279.753 3.28.751 3.279.748 3.279.745 3.28.742 3.279.74 3.279.737 3.28.734 3.279.732 3.279.729 3.28.726 3.279.724 3.28.72 3.278.72 3.28.715 3.28.714 3.278.71 3.28.709 3.28.706 3.278.703 3.28.7 3.28.699 3.278.696 3.28.693 3.28.69 3.278.69 3.28.685 3.28.684 3.278.681 3.28.679 3.28.676 3.278.675 3.28.671 3.28.67 3.279.667 3.279.665 3.28.662 3.279.66 3.279.658 3.28.656 3.279.654 3.279.65 3.28.65 3.279.647 3.279.644 3.28.643 3.279.64 3.279.638 3.28.636 3.279.633 3.279.632 3.28.63" fill="none" stroke="#1f77b4" stroke-linecap="square" stroke-width="1.5" id="line2d_13"/><path clip-path="url(#p01404f66d2)" d="M73.833 125.248l3.28-40.32 3.278 58.24 3.28-40.32 3.28-49.28 3.278 53.76 3.28-8.96 3.28 40.32h3.278l3.28 13.44 3.28-13.44 3.278 8.96 3.28-8.96 3.28 17.92 3.278-49.28 3.28 67.2 3.28-31.36 3.278 4.48 3.28 58.24 3.28-89.6 3.279 35.84 3.279-13.44 3.28-40.32 3.279 35.84 3.279 67.2 3.28-31.36 3.279-67.2 3.279 53.76 3.28-17.92 3.279 85.12 3.279-107.52 3.28 8.96 3.279-35.84 3.279 53.76h3.28l3.279 76.16 3.279-58.24 3.28-13.44 3.279-26.88 3.279 76.16 3.28-49.28 3.279-40.32 3.279-13.44 3.28 94.08 3.279-4.48 3.279 13.44 3.28-71.68 3.279 44.8 3.279 8.96 3.28-62.72 3.279 4.48 3.279 35.84 3.28-22.4 3.279 103.04 3.279-35.84 3.28-44.8 3.279 67.2h3.279l3.28 4.48 3.279-116.48 3.28 80.64 3.278-44.8 3.28 31.36 3.28-13.44 3.278 13.44 3.28-22.4 3.28-13.44 3.278-17.92 3.28 22.4 3.28 58.24 3.278-58.24 3.28-31.36 3.28 49.28 3.278 22.4 3.28-17.92 3.28 53.76 3.278-40.32 3.28 80.64 3.28-49.28 3.278-17.92 3.28 22.4 3.28 22.4 3.279-17.92 3.279-17.92 3.28 8.96 3.279-22.4 3.279 13.44 3.28 22.4 3.279-22.4 3.279 53.76 3.28 4.48 3.279-62.72 3.279-31.36 3.28 67.2 3.279-40.32 3.279-4.48 3.28 103.04 3.279-134.4 3.279 58.24 3.28-4.48" fill="none" stroke="#ff7f0e" stroke-linecap="square" stroke-width="1.5" id="line2d_14"/><path d="M57.6 307.584V41.472" fill="none" stroke="#000" stroke-linecap="square" stroke-width=".8" id="patch_3"/><path d="M414.72 307.584V41.472" fill="none" stroke="#000" stroke-linecap="square" stroke-width=".8" id="patch_4"/><path d="M57.6 307.584h357.12" fill="none" stroke="#000" stroke-linecap="square" stroke-width=".8" id="patch_5"/><path d="M57.6 41.472h357.12" fill="none" stroke="#000" stroke-linecap="square" stroke-width=".8" id="patch_6"/><text x="236.16" y="35.472" font-family="DejaVu Sans" font-size="12" font-weight="400" text-anchor="middle" id="text_15">Expected Value in 1/(5+x) Algorithm</text><g id="legend_1"><path d="M240.572 78.828H407.72q2 0 2-2V48.472q0-2-2-2H240.572q-2 0-2 2v28.356q0 2 2 2z" fill="#fff" opacity=".8" stroke="#ccc" id="patch_7"/><path d="M242.572 54.57h20" fill="none" stroke="#1f77b4" stroke-linecap="square" stroke-width="1.5" id="line2d_15"/><text x="270.572" y="58.07" font-family="DejaVu Sans" font-size="10" font-weight="400" id="text_16">1/(5+x)</text><path d="M242.572 69.249h20" fill="none" stroke="#ff7f0e" stroke-linecap="square" stroke-width="1.5" id="line2d_17"/><text x="270.572" y="72.749" font-family="DejaVu Sans" font-size="10" font-weight="400" id="text_17">Simulated Mean of 1/(5+x)</text></g></g></g><defs><clipPath id="p01404f66d2"><path d="M57.6 41.472h357.12v266.112H57.6z"/></clipPath></defs></svg>
